X:1
T:Magnificat primi toni - Soriano
T:James Gibb editions
T:#
%%score [ 1 2 3 4 ]
L:1/8
Q:1/4=130
M:none
K:D
V:1 treble nm="S" snm="S"
V:2 treble nm="A" snm="A"
V:3 treble-8 nm="T" snm="T"
V:4 bass nm="B" snm="B"
V:1
 x12 ||"^Magnificat primi toni""^Francesco Soriano\n(1549-1621)"[Q:1/4=200] z4 e6 e2 B4 | %2
w: |A- ni- ma|
 d4 B4 B4 B4 | ^G16 || x24 x2 | x16 x6 ||[Q:1/4=200] G8 A4 A4 | B8 B4 B4 | %8
w: me- a Do- mi-|num.|||Qui- a re-|spe- xit hu-|
[Q:1/4=200][Q:1/4=200][Q:1/4=200][Q:1/4=200] (e6 d2 =c4 B4- | B2 A2 A6 GF) G4 | G8 G4 D4 | %11
w: mi\- * * *|* * * * * li-|ta- tem an-|
 (G6 F2 E4) D4 | (G6 A2 B2 G2 B4- | B2 A2 A4) ^G8 | z4 B8 B4 | B8 B4 B4 | B4 B4 B8 | B4 G4 =c8 | %18
w: cil\- * * lae|su\- * * * *|* * * ae:|Ec- ce|e- nim ex|hoc be- a-|tam me di-|
 B4 G8 G4 | F6 G2 E6 F2 | (^D4 E8 D4) | E16 || %22
w: cent o- mnes|ge- ne- ra- ti-|o\- * *|nes.|
[Q:1/4=130][Q:1/4=130][Q:1/4=130][Q:1/4=130] x16 x12 | x12 x10 | x16 |[Q:1/4=200] x6 x10 || %26
w: ||||
[Q:1/4=200] z16 |[Q:1/4=200][Q:1/4=200][Q:1/4=200] z16 | z4 B8 B4 | B4 B4 A4 B4- | B2 E2 G8 F4 | %31
w: ||A pro-|ge- ni- e in|* pro- ge- ni-|
 G4 B4 B6 B2 |[Q:1/4=130] B8 A8 x10 | ^G16 x6 ||[Q:1/4=130][Q:1/4=130][Q:1/4=130] x24 x2 | %35
w: es ti- men- ti-|bus e-|um.||
[Q:1/4=200] x16 x6 ||[Q:1/4=200] z4 B4 B6 B2 |[Q:1/4=200][Q:1/4=200][Q:1/4=200] B4 c4 d8 | %38
w: |De- po- su-|it po- ten-|
 =c4 B4 (B8- | B4 A2 G2 A8) | B4 B4 B4 A4 | (F2 G2 A8) G4 |[Q:1/4=130] (F2 E2 E8) ^D4 x8 | %43
w: tes de se\-||de, et ex- al-|ta\- * * vit|hu\- * * mi-|
 E16 x8 ||[Q:1/4=130][Q:1/4=130][Q:1/4=200][Q:1/4=130] z24 | z24 || %46
w: les.|||
[Q:1/4=200][Q:1/4=200][Q:1/4=200] z4 B8 d4- | d4 c4 c4 B4 | A4 d6 d2 B4 | (c2 B2 B8 ^A4) | %50
w: Su- sce\-|* pit Is- ra-|el pu- e- rum|su\- * * *|
 B4 F8 F4 | G8 F4 F4 | F4 G4 A8- | A4 G4 E4 (F4- |[Q:1/4=130] F2 E2 E8 ^D4) x8 | E16 x8 || %56
w: um, re- cor-|da- tus mi-|se- ri- cor\-|* di- ae su\-||ae.|
[Q:1/4=130][Q:1/4=130][Q:1/4=400][Q:1/4=130] z24 | z8 x16 | %58
w: ||
[M:3/1][Q:1/4=400][Q:1/4=400][Q:1/4=400] ^G12 G4 A8 | B8 B8 d8 | B16 ^A8 | B24 | B16 B8 | A16 G8 | %64
w: Glo- ri- a|Pa- tri, et|Fi- li-|o,|et Spi-|ri- tu-|
[Q:1/4=130] A8 B16 | ^G24 ||[Q:1/4=130][Q:1/4=130][Q:1/4=130] z24 | z22 |] %68
w: i san-|cto.|||
V:2
 x12 || E6 E2 G4 D4 | F4 E8 ^D4 | E16 || x24 x2 | x16 x6 || E8 F4 F4 | G8 G4 G4 | (G6 FE G6 F2 | %9
w: |A- ni- ma me-|a Do- mi-|num.|||Qui- a re-|spe- xit hu-|mi\- * * * *|
 E12) E4 | E8 D8- | D4 D4 (G6 F2 | E4) D4 (G8 | E8) E8 | z4 F8 F4 | G8 F4 F4 | G4 F4 G8 | %17
w: * li-|ta- tem|* an- cil\- *|* lae su\-|* ae:|Ec- ce|e- nim ex|hoc be- a-|
 F4 E4 (E4 F4) | G4 D8 D4 | D4 D4 =C4 C4 | B,16 | B,16 || x16 x12 | x12 x10 | x16 | x6 x10 || %26
w: tam me di\- *|cent o- mnes|ge- ne- ra- ti-|o-|nes.|||||
 F6 F2 F4 G4 | F4 E4 E4 ^D4 | E4 =D8 G4 | G4 G4 F8 | B,6 C2 D4 D4 | D4 G4 F6 F2 | F4 (E8 ^D4) x10 | %33
w: Et mi- se- ri-|cor- di- a e-|ius a pro-|ge- ni- e|in pro- ge- ni-|es ti- men- ti-|bus e\- *|
 E16 x6 || x24 x2 | x16 x6 || F8 ^G6 G2 | ^G4 A4 (F4 E2 D2 | E8) D4 G4 | (G4 F2 E2 F8) | %40
w: um.|||De- po- su-|it po- ten\- * *|* tes de|se\- * * *|
 (G6 FE D8- | D4) F4 F4 E4 | C4 C4 B,4 B,4 x8 | B,16 x8 || z24 | z24 || G8 F4 F4 | A12 F4 | %48
w: de, * * *|* et ex- al-|ta- vit hu- mi-|les.|||Su- sce- pit|Is- ra-|
 F8 D6 D2 | E8 C8 | B,4 ^D8 D4 | E8 ^D4 D4 | ^D4 E4 (F6 E2 | =D2 A,2 D6) C2 C4 | B,16 x8 | %55
w: el pu- e-|rum su-|um, re- cor-|da- tus mi-|se- ri- cor\- *|* * * di- ae|su-|
 B,16 x8 || z24 | z8 x16 |[M:3/1] E12 E4 E8 | G8 G8 A8 | G16 F8 | F24 | G16 G8 | F16 E8 | E16 ^D8 | %65
w: ae.|||Glo- ri- a|Pa- tri, et|Fi- li-|o,|et Spi-|ri- tu-|i san-|
 E24 || z24 | z22 |] %68
w: cto.|||
V:3
 G2 A2 B2 B2 B4 || z4 B6 B2 B4 | A4 G4 F4 F4 | E16 || G2 A2 B2 B8 =c2 B2 B2 A2 B4 | %5
w: Ma- gni\- * fi- cat|A- ni- ma|me- a Do- mi-|num.|Et ex\- * ultavit spi- ri- tus me- us|
 B8 A2 G2 A2 B2 A2 G4 || B8 d4 d4 | (d6 c2 B2 A2 B4) | B4 B4 (e6 d2 | =c8) B8 | =c8 B8- | %11
w: in~Deo~salu- ta- ri me\- * o. *|Qui- a re-|spe\- * * * *|xit hu- mi\- *|* li-|ta- tem|
 B4 B4 (B6 AG | B6 c2 d4) d4 | =c8 B8 | z4 ^d8 d4 | e8 ^d4 d4 | e4 ^d4 e8 | B4 =c4 A8 | G4 B8 B4 | %19
w: * an- cil\- * *|* * * lae|su- ae:|Ec- ce|e- nim ex|hoc be- a-|tam me di-|cent o- mnes|
 A4 B4 (G2 FE A4- | A4) G4 F8 | E16 || G2 A2 B2 B8 =c2 B2 B2 A2 B2 B4 | B8 A2 G2 A2 B2 A2 G4 | %24
w: ge- ne- ra\- * * *|* ti- o-|nes.|Qui- a * fecit~mihi ma- gna qui po- tens est:|et~sanctum no- men e\- * ius. *|
 d6 d2 d4 d4 | c4 B4 c4 A4 || B8 d6 d2 | d4 d4 d8 | G4 G4 A6 A2 | B4 e8 d4- | d2 d2 B4 (c4 A4) | %31
w: Et mi- se- ri-|cor- di- a e-|ius a pro-|ge- ni- e|in pro- ge- ni-|es ti- men\-|* ti- bus e\- *|
 B16 | G2 A2 B2 B8 =c2 B2 B2 A2 B4 | B8 A2 G2 A2 B2 A2 G4 || B8 e6 e2 x10 | e4 A4 B8 x6 || %36
w: um.|Fe- cit * potentiam~in bra- chi- o su- o:|dispersit~superbos~mente cor- dis su\- * i. *|De- po- su-|it po- ten-|
 A4 G4 (G2 A2 B2 c2 | d16) | G8 z8 | z4 d4 d4 B4 | A6 G2 F4 F4 | E16 | G2 A2 B2 B8 =c2 B2 A2 B4 | %43
w: tes de se\- * * *||de,|et ex- al-|ta- vit hu- mi-|les.|E- su\- * rientes~im- ple- vit bo- nis:|
 B8 A2 G2 A2 B2 A2 A2 G4 || e8 d8 x8 | e4 (e6 d2 d2 cB x8 || c4) A4 B8 | z16 | z4 B8 B4 | E8 B8- | %50
w: et~divites~di- mi- sit i\- * na- nes. *|Su- sce-|pit Is\- * * * *|* ra- el||re- cor-|da- tus|
 B8 z4 F4 | F4 B4 (A2 E2 A4- | A2) G2 G4 F8 | E16 | G2 A2 B2 B8 =c2 B2 A2 B4 | %55
w: * mi-|se- ri- cor\- * *|* di- ae su-|ae.|Si- cut * locutus~est~ad pa- tres no- stros,|
 B8 A2 G2 A2 B2 A2 A2 G4 ||[M:3/1][K:treble-8] B12 B4 c8 | d8 d8 f8 | e16 c8 | ^d24 | e16 d8 | %61
w: Abraham~et~semini e- ius in sae- cu- la. *|Glo- ri- a|Pa- tri, et|Fi- li-|o,|et Spi-|
 d16 B8 | E8 F16 | E24 | G2 A2 B2 B8 =c2 B2 A2 B4 | B8 A2 G2 A2 B2 A2 G4 x2 || x24 | x22 |] %68
w: ri- tu-|i san-|cto.|Si- cut * erat~in~principio,~et nunc, et sem- per,|et~in~saecula~saecu- lo- rum. A\- * men. *|||
V:4
 x12 || z4 E,6 E,2 G,4 | D,4 E,4 B,,4 B,,4 | E,16 || x24 x2 | x16 x6 || E,8 D,4 D,4 | G,8 G,4 E,4 | %8
w: |A- ni- ma|me- a Do- mi-|num.|||Qui- a re-|spe- xit hu-|
 E,16- | E,8 E,8 | =C,8 G,8- | G,4 G,4 G,8- | G,4 G,4 (G,8 | A,8) E,8 | z4 B,8 B,4 | E,8 B,8 | %16
w: mi\-|* li-|ta- tem|* an- cil\-|* lae su\-|* ae:|Ec- ce|e- nim|
 z16 | z16 | z4 G,8 G,4 | D,4 B,,4 =C,4 A,,4 | B,,16 | E,16 || x16 x12 | x12 x10 | x16 | x6 x10 || %26
w: ||o- mnes|ge- ne- ra- ti-|o-|nes.|||||
 B,6 B,2 B,4 B,4 | A,4 ^G,4 A,4 F,4 | E,4 G,8 G,4 | G,4 G,4 D,8 | E,4 E,4 D,6 D,2 | G,4 E,4 B,8 | %32
w: Et mi- se- ri-|cor- di- a e-|ius a pro-|ge- ni- e|in pro- ge- ni-|es ti- men-|
 B,4 G,4 F,8 x10 | E,16 x6 || x24 x2 | x16 x6 || z16 | z16 | z16 | z16 | z4 G,4 G,4 F,4 | %41
w: ti- bus e-|um.|||||||et ex- al-|
 D,12 E,4 | (A,,8 B,,6) B,,2 x8 | E,16 x8 || z24 | z24 || E,8 B,8 | A,4 A,8 B,4 | F,8 G,6 G,2 | %49
w: ta- vit|hu\- * mi-|les.|||Su- sce-|pit Is- ra-|el pu- e-|
 E,8 F,8 | B,,16 | z8 z4 B,,4 | B,,4 E,4 D,8- | D,4 G,,4 A,,8 | B,,16 x8 | E,16 x8 || z24 | %57
w: rum su-|um,|mi-|se- ri- cor\-|* di- ae|su-|ae.||
 z8 x16 |[M:3/1] E,12 E,4 A,8 | G,8 G,8 D,8 | E,16 F,8 | B,,24 | E,16 G,8 | D,16 E,8 | =C,8 B,,16 | %65
w: |Glo- ri- a|Pa- tri, et|Fi- li-|o,|et Spi-|ri- tu-|i san-|
 E,24 || z24 | z22 |] %68
w: cto.|||

